round/svg/more.svg

<svg xmlns="http://www.w3.org/2000/svg" width="24" height="24"><path fill="none" d="M0 0h24v24H0V0z"/><g><path d="M22 3H7c-.69 0-1.23.35-1.59.88L.37 11.45c-.22.34-.22.77 0 1.11l5.04 7.56c.36.52.97.88 1.66.88H22c1.1 0 2-.9 2-2V5c0-1.1-.9-2-2-2zM9 13.5c-.83 0-1.5-.67-1.5-1.5s.67-1.5 1.5-1.5 1.5.67 1.5 1.5-.67 1.5-1.5 1.5zm5 0c-.83 0-1.5-.67-1.5-1.5s.67-1.5 1.5-1.5 1.5.67 1.5 1.5-.67 1.5-1.5 1.5zm5 0c-.83 0-1.5-.67-1.5-1.5s.67-1.5 1.5-1.5 1.5.67 1.5 1.5-.67 1.5-1.5 1.5z"/></g></svg>

<?xml version="1.0" encoding="utf-8"?>
<!-- Generator: Adobe Illustrator 19.1.0, SVG Export Plug-In . SVG Version: 6.00 Build 0)  -->
<svg version="1.1" xmlns="http://www.w3.org/2000/svg" xmlns:xlink="http://www.w3.org/1999/xlink" x="0px" y="0px" width="24px"
	 height="24px" viewBox="0 0 24 24" enable-background="new 0 0 24 24" xml:space="preserve">
<g id="Bounding_Boxes">
	<g id="ui_x5F_spec_x5F_header_copy_2">
	</g>
	<path fill="none" d="M0,0h24v24H0V0z"/>
</g>
<g id="Rounded_1_">
	<path d="M22,3H7C6.31,3,5.77,3.35,5.41,3.88l-5.04,7.57c-0.22,0.34-0.22,0.77,0,1.11l5.04,7.56C5.77,20.64,6.38,21,7.07,21H22
		c1.1,0,2-0.9,2-2V5C24,3.9,23.1,3,22,3z M9,13.5c-0.83,0-1.5-0.67-1.5-1.5s0.67-1.5,1.5-1.5s1.5,0.67,1.5,1.5S9.83,13.5,9,13.5z
		 M14,13.5c-0.83,0-1.5-0.67-1.5-1.5s0.67-1.5,1.5-1.5s1.5,0.67,1.5,1.5S14.83,13.5,14,13.5z M19,13.5c-0.83,0-1.5-0.67-1.5-1.5
		s0.67-1.5,1.5-1.5s1.5,0.67,1.5,1.5S19.83,13.5,19,13.5z"/>
</g>
</svg>
